public/icons/lamp.svg

<svg width="24" height="24" viewBox="0 0 24 24" fill="none" xmlns="http://www.w3.org/2000/svg">
<path d="M4.90955 3.9005L4.10955 11.9005C4.05068 12.4892 4.51297 13 5.10459 13H10.9996V20H7.9996C7.44732 20 6.9996 20.4477 6.9996 21C6.9996 21.5523 7.44732 22 7.9996 22H15.9996C16.5519 22 16.9996 21.5523 16.9996 21C16.9996 20.4477 16.5519 20 15.9996 20H12.9996V13H18.8946C19.4862 13 19.9485 12.4892 19.8897 11.9005L19.0897 3.9005C19.0385 3.3893 18.6084 3 18.0946 3H5.90459C5.39084 3 4.96067 3.38929 4.90955 3.9005Z" fill="#1574E5"/>
</svg>

<svg xmlns="http://www.w3.org/2000/svg" width="24" height="24" fill="none"><path fill="#1574E5" d="m4.91 3.9-.8 8a1 1 0 0 0 .995 1.1H11v7H8a1 1 0 1 0 0 2h8a1 1 0 1 0 0-2h-3v-7h5.895a1 1 0 0 0 .995-1.1l-.8-8a1 1 0 0 0-.995-.9H5.905a1 1 0 0 0-.995.9"/></svg>
